X:1
T:St Clair's -- Hornpipe
R:hornpipe
B:Cole's 1000 Fiddle Tunes
M:2/4
L:1/16
K:D
vAG|FADF Adcd|edcd e2veuf|gfed edcB|ABAG F2vAuG|
FADF Adcd|edcd e2(ef)|gfed cABc|d2f2d2:|
|:vF"8va ad lib."G|"4"A^GAF DFAF|GABc edcB|\
"4"A^GAF DFAF|GFED E2(FG)|
"4"A^GAF DFAF|GABc edcB|ABAF AGFE|D2F2D2:|
